astaworks/images/instagram.svg

<?xml version="1.0" encoding="UTF-8"?>
<svg width="19px" height="19px" viewBox="0 0 19 19" version="1.1" xmlns="http://www.w3.org/2000/svg" xmlns:xlink="http://www.w3.org/1999/xlink">
    <!-- Generator: Sketch 47.1 (45422) - http://www.bohemiancoding.com/sketch -->
    <title>instagram</title>
    <desc>Created with Sketch.</desc>
    <defs>
        <polygon id="path-1" points="0.00838235294 0.104779412 0.00838235294 19 18.8952206 19 18.8952206 0.104779412 0.00838235294 0.104779412"></polygon>
    </defs>
    <g id="Symbols" stroke="none" stroke-width="1" fill="none" fill-rule="evenodd">
        <g id="instagram">
            <g id="Group-5">
                <g id="instagram-logo">
                    <g id="Group-3">
                        <mask id="mask-2" fill="white">
                            <use xlink:href="#path-1"></use>
                        </mask>
                        <g id="Clip-2"></g>
                        <path d="M13.6808382,0.104779412 L5.21438235,0.104779412 C2.33895588,0.104779412 0,2.443875 0,5.31930147 L0,13.7856176 C0,16.6610441 2.33895588,19 5.21438235,19 L13.6808382,19 C16.5562647,19 18.8952206,16.6604853 18.8952206,13.7856176 L18.8952206,5.31930147 C18.8952206,2.443875 16.5562647,0.104779412 13.6808382,0.104779412 Z M17.21875,13.7856176 C17.21875,15.7366103 15.6318309,17.3235294 13.6808382,17.3235294 L5.21438235,17.3235294 C3.26338971,17.3235294 1.67647059,15.7366103 1.67647059,13.7856176 L1.67647059,5.31930147 C1.67647059,3.36830882 3.26338971,1.78125 5.21438235,1.78125 L13.6808382,1.78125 C15.6318309,1.78125 17.21875,3.36830882 17.21875,5.31930147 L17.21875,13.7856176 Z" id="Fill-1" fill="#FFFFFF" mask="url(#mask-2)"></path>
                    </g>
                    <path d="M9.44761029,4.68405882 C6.76260294,4.68405882 4.57858088,6.86808088 4.57858088,9.55238971 C4.57858088,12.2373971 6.76260294,14.4214191 9.44761029,14.4214191 C12.1320588,14.4214191 14.3166397,12.2373971 14.3166397,9.55238971 C14.3166397,6.86808088 12.1320588,4.68405882 9.44761029,4.68405882 Z M9.44761029,12.7443897 C7.68759559,12.7443897 6.25505147,11.3129632 6.25505147,9.55238971 C6.25505147,7.79251471 7.68703676,6.35997059 9.44761029,6.35997059 C11.2081838,6.35997059 12.6401691,7.79251471 12.6401691,9.55238971 C12.6401691,11.3129632 11.207625,12.7443897 9.44761029,12.7443897 Z" id="Fill-4" fill="#FFFFFF"></path>
                    <path d="M14.52075,3.26241176 C14.1976103,3.26241176 13.8804779,3.39289706 13.6524779,3.62201471 C13.4226618,3.85015441 13.2911985,4.16770588 13.2911985,4.49196324 C13.2911985,4.81496324 13.4232206,5.13209559 13.6524779,5.36121324 C13.8800588,5.58935294 14.1976103,5.72095588 14.52075,5.72095588 C14.8448676,5.72095588 15.1608824,5.58935294 15.39,5.36121324 C15.6192574,5.13209559 15.7501618,4.81440441 15.7501618,4.49196324 C15.7501618,4.16770588 15.6192574,3.85015441 15.39,3.62201471 C15.1618603,3.39289706 14.8448676,3.26241176 14.52075,3.26241176 Z" id="Fill-5" fill="#FFFFFF"></path>
                </g>
            </g>
        </g>
    </g>
</svg>

<svg width="19" height="19" viewBox="0 0 19 19" xmlns="http://www.w3.org/2000/svg" xmlns:xlink="http://www.w3.org/1999/xlink"><title>instagram</title><defs><path id="a" d="M.008.105V19h18.887V.105H.008z"/></defs><g fill="none" fill-rule="evenodd"><mask id="b" fill="#fff"><use xlink:href="#a"/></mask><path d="M13.68.105H5.215A5.22 5.22 0 0 0 0 5.319v8.467A5.22 5.22 0 0 0 5.214 19h8.467a5.22 5.22 0 0 0 5.214-5.214V5.319A5.22 5.22 0 0 0 13.681.105zm3.539 13.68a3.542 3.542 0 0 1-3.538 3.539H5.214a3.542 3.542 0 0 1-3.538-3.538V5.319a3.542 3.542 0 0 1 3.538-3.538h8.467a3.542 3.542 0 0 1 3.538 3.538v8.467z" fill="#FFF" mask="url(#b)"/><path d="M9.448 4.684a4.874 4.874 0 0 0-4.87 4.868 4.874 4.874 0 0 0 4.87 4.87 4.875 4.875 0 0 0 4.869-4.87 4.874 4.874 0 0 0-4.87-4.868zm0 8.06a3.196 3.196 0 0 1-3.193-3.192A3.196 3.196 0 0 1 9.448 6.36a3.196 3.196 0 0 1 3.192 3.192 3.196 3.196 0 0 1-3.192 3.192zm5.072-9.482a1.233 1.233 0 0 0-1.229 1.23c0 .323.132.64.361.87.228.227.546.359.869.359.324 0 .64-.132.869-.36a1.232 1.232 0 0 0 0-1.739 1.234 1.234 0 0 0-.87-.36z" fill="#FFF"/></g></svg>
